X: 12031
T: Eric's
R: strathspey
M: 4/4
K: Edorian
|:{D}E2 B>E G>BE>B|G>BE>B F>Ad>e|f<dg>e a>fd>A|B/c/d F>A E/F/G B,>F|
E<B, E>G B>d G>B|A>dF>A D>E F/E/D|f<dg>e a>fd>A|B/c/d F>A B<EE>D:|
|:D>Ee>E d>Ee>e|e>fg>a b>ge>g|f<dg>e a>fd>A|B/c/d F>A E/F/G B,>F|
D>Ee>E d>Ee>e|e>fg>a b>ge>g|f<dg>e a>fd>A|B/c/d F>A B<E E2:|

